X: 26603
T: Mick O'Connor's
R: reel
M: 4/4
K: Gmajor
|:DEGA BGAG|EAAG ABGE|DEGA Bded|gedB ABGE|
D3c BGAG|EAAG ABGE|DEGA Bded|1 gedB AGGE:|2 gedB AGGd||
|:G3B dBBd|AGEG AGED|GABd GABd|ADGA BGGF|
G3B dBBd|AGEG AGEG|B3d (3edB dB|1 ADGA BGGF:|2 ADGA BGG2||

